src/assets/images/homepage/features/icons/calendar.svg

<?xml version="1.0" encoding="iso-8859-1"?>
<!-- Generator: Adobe Illustrator 19.0.0, SVG Export Plug-In . SVG Version: 6.00 Build 0)  -->
<svg version="1.1" id="Capa_1" xmlns="http://www.w3.org/2000/svg" xmlns:xlink="http://www.w3.org/1999/xlink" x="0px" y="0px"
	 viewBox="0 0 512 512" style="enable-background:new 0 0 512 512;" xml:space="preserve">
<path style="fill:#F2F2F2;" d="M0,154.501v314.773c0,23.573,19.083,42.667,42.667,42.667h426.667
	c23.563,0,42.667-19.093,42.667-42.667V154.501L0,154.501L0,154.501z"/>
	<text id="day" x='85' y='450' font-size='350' font-family='Calibri' font-weight="bold" fill='#40596B'>31</text>
<path style="fill:#FF7058;" d="M469.333,30.416H42.667C19.104,30.416,0,49.52,0,73.083v81.483h512V73.083
	C512,49.52,492.896,30.416,469.333,30.416"/>
<g>
	<path style="fill:#FFFFFF;" d="M444.213,92.475c0,16.672-13.504,30.187-30.187,30.187c-16.672,0-30.165-13.515-30.165-30.187
		s13.504-30.187,30.165-30.187C430.709,62.288,444.213,75.803,444.213,92.475"/>
	<path style="fill:#FFFFFF;" d="M128.171,92.475c0,16.672-13.525,30.187-30.187,30.187s-30.165-13.515-30.165-30.187
		s13.504-30.187,30.165-30.187S128.171,75.803,128.171,92.475"/>
</g>
<g>
	<path style="fill:#40596B;" d="M414.336,0.059c-11.083,0-20.085,8.981-20.085,20.085l-0.309,65.109
		c0,11.093,9.003,20.085,20.107,20.085c11.083,0,20.085-8.992,20.085-20.085l0.309-65.109C434.443,9.04,425.44,0.059,414.336,0.059"
		/>
	<path style="fill:#40596B;" d="M98.293,0.059L98.293,0.059c-11.083,0-20.085,8.981-20.085,20.085l-0.309,65.099
		c0,11.093,9.003,20.085,20.085,20.085c11.104,0,20.085-8.992,20.085-20.085l0.309-65.109C118.379,9.04,109.397,0.059,98.293,0.059"
		/>
</g>
</svg>

<svg width="512" height="512" viewBox="0 0 512 512" fill="none" xmlns="http://www.w3.org/2000/svg">
<g clip-path="url(#clip0)">
<path d="M0 154.501V469.274C0 492.847 19.083 511.941 42.667 511.941H469.334C492.897 511.941 512.001 492.848 512.001 469.274V154.501H0Z" fill="#F2F2F2"/>
<path d="M469.333 30.416H42.667C19.104 30.416 0 49.52 0 73.083V154.566H512V73.083C512 49.52 492.896 30.416 469.333 30.416Z" fill="#FF7058"/>
<path d="M444.213 92.475C444.213 109.147 430.709 122.662 414.026 122.662C397.354 122.662 383.861 109.147 383.861 92.475C383.861 75.803 397.365 62.288 414.026 62.288C430.709 62.288 444.213 75.803 444.213 92.475Z" fill="white"/>
<path d="M128.171 92.475C128.171 109.147 114.646 122.662 97.984 122.662C81.322 122.662 67.819 109.147 67.819 92.475C67.819 75.803 81.323 62.288 97.984 62.288C114.645 62.288 128.171 75.803 128.171 92.475Z" fill="white"/>
<path d="M414.336 0.0590057C403.253 0.0590057 394.251 9.04 394.251 20.144L393.942 85.253C393.942 96.346 402.945 105.338 414.049 105.338C425.132 105.338 434.134 96.346 434.134 85.253L434.443 20.144C434.443 9.04 425.44 0.0590057 414.336 0.0590057Z" fill="#40596B"/>
<path d="M98.293 0.0590057C87.21 0.0590057 78.208 9.04 78.208 20.144L77.899 85.243C77.899 96.336 86.902 105.328 97.984 105.328C109.088 105.328 118.069 96.336 118.069 85.243L118.378 20.134C118.379 9.04001 109.397 0.0590057 98.293 0.0590057Z" fill="#40596B"/>
</g>
<defs>
<clipPath id="clip0">
<rect width="512" height="512" fill="white"/>
</clipPath>
</defs>
</svg>
